modules/entypo/icons/publish.svg

<svg height="1000px" width="1000px" xmlns="http://www.w3.org/2000/svg">
  <g>
    <path d="M900 50c28 0 51.667 10 71 30c19.333 20 29 43.333 29 70c0 0 0 600 0 600c0 28 -9.667 51.667 -29 71c-19.333 19.333 -43 29 -71 29c0 0 -198 0 -198 0c0 0 0 -98 0 -98c0 0 200 0 200 0c0 0 0 -462 0 -462c0 0 -802 0 -802 0c0 0 0 462 0 462c0 0 200 0 200 0c0 0 0 98 0 98c0 0 -200 0 -200 0c-26.667 0 -50 -9.667 -70 -29c-20 -19.333 -30 -43 -30 -71c0 0 0 -600 0 -600c0 -26.667 10 -50 30 -70c20 -20 43.333 -30 70 -30c0 0 800 0 800 0c0 0 0 0 0 0m-770 168c25.333 0 38 -12.667 38 -38c0 -10.667 -3.667 -19.333 -11 -26c-7.333 -6.667 -16.333 -10 -27 -10c-10.667 0 -19.667 3.667 -27 11c-7.333 7.333 -11 15.667 -11 25c0 10.667 3.667 19.667 11 27c7.333 7.333 16.333 11 27 11c0 0 0 0 0 0m100 0c25.333 0 38 -12.667 38 -38c0 -10.667 -3.667 -19.333 -11 -26c-7.333 -6.667 -16.333 -10 -27 -10c-10.667 0 -19.667 3.667 -27 11c-7.333 7.333 -11 15.667 -11 25c0 10.667 3.667 19.667 11 27c7.333 7.333 16.333 11 27 11c0 0 0 0 0 0m672 -6c0 0 0 -62 0 -62c0 0 -602 0 -602 0c0 0 0 62 0 62c0 0 602 0 602 0c0 0 0 0 0 0m-404 198c0 0 242 240 242 240c0 0 -150 0 -150 0c0 0 0 300 0 300c0 0 -184 0 -184 0c0 0 0 -300 0 -300c0 0 -150 0 -150 0c0 0 242 -240 242 -240" />
  </g>
</svg>

<svg height="1000" width="1000" viewbox="0 0 1000 1000" xmlns="http://www.w3.org/2000/svg"><path d="M900 50c28 0 51.667 10 71 30s29 43.333 29 70v600c0 28-9.667 51.667-29 71s-43 29-71 29H702v-98h200V290H100v462h200v98H100c-26.667 0-50-9.667-70-29S0 778 0 750V150c0-26.667 10-50 30-70s43.333-30 70-30h800M130 218c25.333 0 38-12.667 38-38 0-10.667-3.667-19.333-11-26-7.333-6.667-16.333-10-27-10-10.667 0-19.667 3.667-27 11-7.333 7.333-11 15.667-11 25 0 10.667 3.667 19.667 11 27 7.333 7.333 16.333 11 27 11m100 0c25.333 0 38-12.667 38-38 0-10.667-3.667-19.333-11-26-7.333-6.667-16.333-10-27-10-10.667 0-19.667 3.667-27 11-7.333 7.333-11 15.667-11 25 0 10.667 3.667 19.667 11 27 7.333 7.333 16.333 11 27 11m672-6v-62H300v62h602M498 410l242 240H590v300H406V650H256l242-240"/></svg>
